assets/icons/looks.svg

<svg width="30" height="30" viewBox="0 0 30 30" fill="none" xmlns="http://www.w3.org/2000/svg">
<path fill-rule="evenodd" clip-rule="evenodd" d="M20.622 9.51816C20.6997 9.59566 20.7542 9.69336 20.7794 9.80023C20.8045 9.9071 20.7992 10.0189 20.7642 10.1229L19.4762 13.923L21.8789 17.1413C21.9444 17.2292 21.984 17.3338 21.9933 17.4431C22.0025 17.5524 21.981 17.6621 21.9312 17.7599C21.8814 17.8576 21.8053 17.9395 21.7114 17.9962C21.6175 18.053 21.5097 18.0824 21.4 18.0811L17.3874 18.0271L15.0713 21.3026C15.008 21.3919 14.921 21.4618 14.82 21.5044C14.7191 21.5469 14.6083 21.5605 14.5001 21.5435C14.3919 21.5265 14.2906 21.4797 14.2076 21.4082C14.1246 21.3368 14.0631 21.2436 14.0302 21.1391L12.837 17.3047L9.00261 16.1116C8.89776 16.0788 8.80416 16.0174 8.73241 15.9342C8.66066 15.8511 8.61362 15.7495 8.59661 15.641C8.57961 15.5325 8.59331 15.4214 8.63617 15.3202C8.67904 15.2191 8.74935 15.132 8.83916 15.0688L12.113 12.7544L12.059 8.74179C12.0575 8.63182 12.0868 8.52362 12.1437 8.42947C12.2005 8.33532 12.2826 8.25898 12.3806 8.20912C12.4786 8.15926 12.5887 8.13787 12.6982 8.14737C12.8078 8.15687 12.9125 8.19689 13.0005 8.26289L16.2171 10.6655L20.0172 9.37759C20.1211 9.34231 20.2328 9.33678 20.3396 9.36162C20.4465 9.38646 20.5443 9.44068 20.622 9.51816ZM19.2654 10.8748L16.3021 11.8783C16.2119 11.9086 16.1157 11.9165 16.0217 11.9014C15.9278 11.8863 15.8389 11.8487 15.7627 11.7917L13.2522 9.9186L13.2931 13.0469C13.2947 13.1427 13.2729 13.2375 13.2296 13.3229C13.1863 13.4084 13.1228 13.482 13.0446 13.5373L10.49 15.3417L13.481 16.2734C13.572 16.3015 13.6547 16.3513 13.7222 16.4185C13.7897 16.4857 13.8398 16.5683 13.8684 16.6591L14.8 19.6502L16.6045 17.0955C16.6596 17.0175 16.733 16.9542 16.8181 16.9109C16.9033 16.8676 16.9977 16.8457 17.0932 16.8471L20.2215 16.8879L18.3484 14.379C18.2917 14.3027 18.2544 14.2137 18.2396 14.1198C18.2248 14.0259 18.233 13.9297 18.2634 13.8397L19.267 10.8748H19.2654ZM10.5308 19.4638C10.6411 19.5742 10.7031 19.7238 10.7031 19.8798C10.7031 20.0358 10.6411 20.1854 10.5308 20.2958L3.99953 26.8271C3.94491 26.8818 3.88003 26.9252 3.80862 26.9549C3.73721 26.9846 3.66065 26.9999 3.58332 26.9999C3.50599 27 3.42941 26.9849 3.35794 26.9553C3.28647 26.9258 3.22151 26.8825 3.16678 26.8279C3.11204 26.7732 3.0686 26.7084 3.03894 26.637C3.00928 26.5656 2.99397 26.489 2.9939 26.4117C2.99382 26.3343 3.00898 26.2578 3.0385 26.1863C3.06802 26.1148 3.11133 26.0499 3.16596 25.9951L9.69888 19.4638C9.75355 19.409 9.8185 19.3654 9.89003 19.3358C9.96155 19.3061 10.0382 19.2908 10.1157 19.2908C10.1931 19.2908 10.2698 19.3061 10.3413 19.3358C10.4128 19.3654 10.4778 19.409 10.5325 19.4638H10.5308ZM15.5519 4.17675C15.5519 3.86464 15.6759 3.56531 15.8966 3.34462C16.1173 3.12392 16.4166 2.99994 16.7287 2.99994C17.0408 2.99994 17.3401 3.12392 17.5608 3.34462C17.7815 3.56531 17.9055 3.86464 17.9055 4.17675V4.2552H17.9839C18.1385 4.2552 18.2915 4.28564 18.4343 4.34478C18.5771 4.40392 18.7068 4.4906 18.8161 4.59988C18.9254 4.70916 19.012 4.83889 19.0712 4.98167C19.1303 5.12444 19.1608 5.27747 19.1608 5.43201C19.1608 5.58655 19.1303 5.73958 19.0712 5.88236C19.012 6.02513 18.9254 6.15486 18.8161 6.26414C18.7068 6.37342 18.5771 6.4601 18.4343 6.51924C18.2915 6.57838 18.1385 6.60882 17.9839 6.60882H17.9055V6.68727C17.9055 6.99938 17.7815 7.29871 17.5608 7.5194C17.3401 7.7401 17.0408 7.86408 16.7287 7.86408C16.4166 7.86408 16.1173 7.7401 15.8966 7.5194C15.6759 7.29871 15.5519 6.99938 15.5519 6.68727V6.60882H15.4734C15.1613 6.60882 14.862 6.48484 14.6413 6.26414C14.4206 6.04345 14.2966 5.74412 14.2966 5.43201C14.2966 5.1199 14.4206 4.82058 14.6413 4.59988C14.862 4.37919 15.1613 4.2552 15.4734 4.2552H15.5519V4.17675ZM16.7287 4.84361C16.7287 4.92088 16.7135 4.99739 16.6839 5.06878C16.6543 5.14017 16.611 5.20503 16.5563 5.25967C16.5017 5.31431 16.4368 5.35765 16.3655 5.38722C16.2941 5.41679 16.2176 5.43201 16.1403 5.43201C16.2963 5.43201 16.446 5.494 16.5563 5.60435C16.6667 5.7147 16.7287 5.86436 16.7287 6.02042C16.7287 5.86436 16.7907 5.7147 16.901 5.60435C17.0114 5.494 17.161 5.43201 17.3171 5.43201C17.2398 5.43201 17.1633 5.41679 17.0919 5.38722C17.0205 5.35765 16.9557 5.31431 16.901 5.25967C16.8464 5.20503 16.803 5.14017 16.7735 5.06878C16.7439 4.99739 16.7287 4.92088 16.7287 4.84361ZM6.1374 9.66853C6.1374 9.35642 6.26139 9.05709 6.48208 8.8364C6.70278 8.6157 7.0021 8.49172 7.31421 8.49172C7.62632 8.49172 7.92565 8.6157 8.14634 8.8364C8.36703 9.05709 8.49102 9.35642 8.49102 9.66853V9.74698H8.56947C8.88158 9.74698 9.18091 9.87097 9.4016 10.0917C9.6223 10.3124 9.74628 10.6117 9.74628 10.9238C9.74628 11.2359 9.6223 11.5352 9.4016 11.7559C9.18091 11.9766 8.88158 12.1006 8.56947 12.1006H8.49102V12.1791C8.49102 12.4912 8.36703 12.7905 8.14634 13.0112C7.92565 13.2319 7.62632 13.3559 7.31421 13.3559C7.0021 13.3559 6.70278 13.2319 6.48208 13.0112C6.26139 12.7905 6.1374 12.4912 6.1374 12.1791V12.1006H6.05895C5.74684 12.1006 5.44751 11.9766 5.22682 11.7559C5.00612 11.5352 4.88214 11.2359 4.88214 10.9238C4.88214 10.6117 5.00612 10.3124 5.22682 10.0917C5.44751 9.87097 5.74684 9.74698 6.05895 9.74698H6.1374V9.66853ZM7.31421 10.3354C7.31421 10.4914 7.25222 10.6411 7.14187 10.7514C7.03152 10.8618 6.88186 10.9238 6.72581 10.9238C6.88186 10.9238 7.03152 10.9858 7.14187 11.0961C7.25222 11.2065 7.31421 11.3561 7.31421 11.5122C7.31421 11.3561 7.3762 11.2065 7.48655 11.0961C7.5969 10.9858 7.74656 10.9238 7.90262 10.9238C7.74656 10.9238 7.5969 10.8618 7.48655 10.7514C7.3762 10.6411 7.31421 10.4914 7.31421 10.3354ZM23.3973 12.2804C23.3973 11.9683 23.5213 11.669 23.742 11.4483C23.9626 11.2276 24.262 11.1036 24.5741 11.1036C24.8862 11.1036 25.1855 11.2276 25.4062 11.4483C25.6269 11.669 25.7509 11.9683 25.7509 12.2804V12.3588H25.8293C26.1415 12.3588 26.4408 12.4828 26.6615 12.7035C26.8822 12.9242 27.0062 13.2235 27.0062 13.5357C27.0062 13.8478 26.8822 14.1471 26.6615 14.3678C26.4408 14.5885 26.1415 14.7125 25.8293 14.7125H25.7509V14.7909C25.7509 15.103 25.6269 15.4024 25.4062 15.623C25.1855 15.8437 24.8862 15.9677 24.5741 15.9677C24.262 15.9677 23.9626 15.8437 23.742 15.623C23.5213 15.4024 23.3973 15.103 23.3973 14.7909V14.7125H23.3188C23.0067 14.7125 22.7074 14.5885 22.4867 14.3678C22.266 14.1471 22.142 13.8478 22.142 13.5357C22.142 13.2235 22.266 12.9242 22.4867 12.7035C22.7074 12.4828 23.0067 12.3588 23.3188 12.3588H23.3973V12.2804ZM24.5741 12.9472C24.5741 13.1033 24.5121 13.253 24.4017 13.3633C24.2914 13.4737 24.1417 13.5357 23.9857 13.5357C24.1417 13.5357 24.2914 13.5976 24.4017 13.708C24.5121 13.8183 24.5741 13.968 24.5741 14.1241C24.5741 13.968 24.6361 13.8183 24.7464 13.708C24.8568 13.5976 25.0064 13.5357 25.1625 13.5357C25.0064 13.5357 24.8568 13.4737 24.7464 13.3633C24.6361 13.253 24.5741 13.1033 24.5741 12.9472ZM18.69 21.6949C18.69 21.5403 18.7205 21.3873 18.7796 21.2445C18.8388 21.1017 18.9254 20.972 19.0347 20.8627C19.144 20.7535 19.2737 20.6668 19.4165 20.6076C19.5593 20.5485 19.7123 20.5181 19.8668 20.5181C20.0214 20.5181 20.1744 20.5485 20.3172 20.6076C20.46 20.6668 20.5897 20.7535 20.699 20.8627C20.8083 20.972 20.8949 21.1017 20.9541 21.2445C21.0132 21.3873 21.0437 21.5403 21.0437 21.6949V21.7733H21.1221C21.4342 21.7733 21.7335 21.8973 21.9542 22.118C22.1749 22.3387 22.2989 22.638 22.2989 22.9501C22.2989 23.2622 22.1749 23.5616 21.9542 23.7823C21.7335 24.003 21.4342 24.1269 21.1221 24.1269H21.0437V24.2054C21.0437 24.3599 21.0132 24.513 20.9541 24.6557C20.8949 24.7985 20.8083 24.9282 20.699 25.0375C20.5897 25.1468 20.46 25.2335 20.3172 25.2926C20.1744 25.3518 20.0214 25.3822 19.8668 25.3822C19.7123 25.3822 19.5593 25.3518 19.4165 25.2926C19.2737 25.2335 19.144 25.1468 19.0347 25.0375C18.9254 24.9282 18.8388 24.7985 18.7796 24.6557C18.7205 24.513 18.69 24.3599 18.69 24.2054V24.1269H18.6116C18.2995 24.1269 18.0001 24.003 17.7795 23.7823C17.5588 23.5616 17.4348 23.2622 17.4348 22.9501C17.4348 22.638 17.5588 22.3387 17.7795 22.118C18.0001 21.8973 18.2995 21.7733 18.6116 21.7733H18.69V21.6949ZM19.8668 22.3617C19.8668 22.5178 19.8049 22.6674 19.6945 22.7778C19.5842 22.8881 19.4345 22.9501 19.2784 22.9501C19.4345 22.9501 19.5842 23.0121 19.6945 23.1225C19.8049 23.2328 19.8668 23.3825 19.8668 23.5385C19.8668 23.3825 19.9288 23.2328 20.0392 23.1225C20.1495 23.0121 20.2992 22.9501 20.4552 22.9501C20.2992 22.9501 20.1495 22.8881 20.0392 22.7778C19.9288 22.6674 19.8668 22.5178 19.8668 22.3617Z" fill="#485FC7"/>
</svg>

<svg width="30" height="30" fill="none" xmlns="http://www.w3.org/2000/svg"><path fill-rule="evenodd" clip-rule="evenodd" d="M20.622 9.518a.59.59 0 0 1 .142.605l-1.288 3.8 2.403 3.218a.589.589 0 0 1-.479.94l-4.013-.054-2.316 3.276a.588.588 0 0 1-1.04-.164l-1.194-3.834-3.834-1.193a.589.589 0 0 1-.164-1.043l3.274-2.315-.054-4.012a.588.588 0 0 1 .942-.48l3.216 2.403 3.8-1.287a.588.588 0 0 1 .605.14Zm-1.357 1.357-2.963 1.003a.588.588 0 0 1-.54-.086l-2.51-1.873.041 3.128a.589.589 0 0 1-.248.49l-2.555 1.805 2.991.931a.587.587 0 0 1 .387.386l.932 2.991 1.805-2.554a.588.588 0 0 1 .488-.249l3.128.04-1.873-2.508a.588.588 0 0 1-.085-.54l1.004-2.964h-.002Zm-8.734 8.589a.589.589 0 0 1 0 .832L4 26.827a.59.59 0 0 1-.834-.832l6.533-6.531a.588.588 0 0 1 .834 0h-.002Zm5.02-15.287a1.177 1.177 0 0 1 2.354 0v.078h.079a1.177 1.177 0 1 1 0 2.354h-.079v.078a1.177 1.177 0 0 1-2.353 0V6.61h-.079a1.177 1.177 0 0 1 0-2.354h.079v-.078Zm1.178.667a.588.588 0 0 1-.589.588.588.588 0 0 1 .589.588.589.589 0 0 1 .588-.588.588.588 0 0 1-.588-.588ZM6.137 9.669a1.177 1.177 0 0 1 2.354 0v.078h.078a1.177 1.177 0 1 1 0 2.354h-.078v.078a1.177 1.177 0 0 1-2.354 0v-.078H6.06a1.177 1.177 0 0 1 0-2.354h.078v-.078Zm1.177.666a.588.588 0 0 1-.588.589.589.589 0 0 1 .588.588.588.588 0 0 1 .589-.588.588.588 0 0 1-.589-.589Zm16.083 1.945a1.177 1.177 0 0 1 2.354 0v.079h.078a1.177 1.177 0 1 1 0 2.354h-.078v.078a1.177 1.177 0 1 1-2.354 0v-.079h-.078a1.177 1.177 0 0 1 0-2.353h.078v-.079Zm1.177.667a.588.588 0 0 1-.588.589.588.588 0 0 1 .588.588.588.588 0 0 1 .588-.588.588.588 0 0 1-.588-.589Zm-5.884 8.748a1.178 1.178 0 0 1 2.354 0v.078h.078a1.177 1.177 0 0 1 0 2.354h-.078v.078a1.177 1.177 0 0 1-2.354 0v-.078h-.078a1.176 1.176 0 1 1 0-2.354h.078v-.078Zm1.177.667a.588.588 0 0 1-.589.588.588.588 0 0 1 .589.588.588.588 0 0 1 .588-.588.588.588 0 0 1-.588-.588Z" fill="#485FC7"/></svg>
